assets/svg/10x10/bench.svg

<svg xmlns="http://www.w3.org/2000/svg" viewBox="0 -0.5 10 10" shape-rendering="crispEdges"><path d="M5 0h2M4 1h3M3 2h2m1 0h1M2 3h2m1 0h4M1 4h2m1 0h2m1 0h2M1 5h1m1 0h2m1 0h1m1 0h1M1 6h3m1 0h1m2 0h1M1 7h4M1 8h1m2 0h1M1 9h1m2 0h1" stroke="#000"/></svg>

<svg xmlns="http://www.w3.org/2000/svg" viewBox="0 -0.5 10 10" shape-rendering="crispEdges">
<metadata>Made with Pixels to Svg https://codepen.io/shshaw/pen/XbxvNj</metadata>
<path stroke="#ffffff" d="M0 0h5M7 0h3M0 1h4M7 1h3M0 2h3M5 2h1M7 2h3M0 3h2M4 3h1M9 3h1M0 4h1M3 4h1M6 4h1M9 4h1M0 5h1M2 5h1M5 5h1M7 5h1M9 5h1M0 6h1M4 6h1M6 6h2M9 6h1M0 7h1M5 7h5M0 8h1M2 8h2M5 8h5M0 9h1M2 9h2M5 9h5" />
<path stroke="#000000" d="M5 0h2M4 1h3M3 2h2M6 2h1M2 3h2M5 3h4M1 4h2M4 4h2M7 4h2M1 5h1M3 5h2M6 5h1M8 5h1M1 6h3M5 6h1M8 6h1M1 7h4M1 8h1M4 8h1M1 9h1M4 9h1" />
</svg>
